img/icons/lp-quote.svg

<svg width="76" height="70" viewBox="0 0 76 70" fill="none" xmlns="http://www.w3.org/2000/svg">
<path d="M14.6685 65.8876C14.1924 67.2009 13.0169 69 10.712 69H4.17876C2.44108 69 1 67.5589 1 65.7576V4.24242C1 2.44113 2.44108 1 4.17876 1H31.1927C32.0707 1 32.9889 1.39599 33.5693 2.07286C34.1154 2.70966 34.4158 3.65409 33.9929 4.9369C33.8634 5.32985 29.0283 20.58 24.2306 35.7163C21.8307 43.2879 19.4386 50.8354 17.6466 56.49L15.4826 63.3186L14.8768 65.2301L14.7173 65.7336L14.6764 65.8626L14.6685 65.8876ZM55.4762 65.8875C55.0002 67.2009 53.8247 69 51.5197 69H44.9865C43.2488 69 41.8077 67.5589 41.8077 65.7576V4.24242C41.8077 2.44113 43.2488 1 44.9865 1H72.0004C72.8784 1 73.7966 1.39599 74.377 2.07286C74.9231 2.70966 75.2235 3.65409 74.8006 4.9369C74.6711 5.32985 69.836 20.58 65.0383 35.7163C62.6384 43.2879 60.2463 50.8354 58.4543 56.49L56.2903 63.3186L55.6845 65.2301L55.525 65.7336L55.4841 65.8626L55.4762 65.8875Z" stroke="#49A0C1" stroke-width="2"/>
</svg>

<svg width="76" height="70" fill="none" xmlns="http://www.w3.org/2000/svg"><path d="M14.668 65.888C14.192 67.2 13.018 69 10.713 69H4.179C2.44 69 1 67.559 1 65.758V4.242C1 2.442 2.441 1 4.179 1h27.014c.878 0 1.796.396 2.376 1.073.546.637.847 1.581.424 2.864-.13.393-4.965 15.643-9.762 30.78L17.647 56.49l-2.164 6.829-.606 1.911-.16.504-.04.129-.008.025Zm40.808 0C55 67.2 53.825 69 51.52 69h-6.534c-1.737 0-3.178-1.441-3.178-3.242V4.242c0-1.8 1.44-3.242 3.178-3.242H72c.878 0 1.797.396 2.377 1.073.546.637.847 1.581.424 2.864-.13.393-4.965 15.643-9.763 30.78L58.454 56.49l-2.164 6.829-.605 1.911-.16.504-.04.129-.009.025Z" stroke="#49A0C1" stroke-width="2"/></svg>
